icons/folder-other.svg

<svg xmlns="http://www.w3.org/2000/svg" viewBox="0 0 32 32"><path fill="#ff7043" d="m13.844 7.536-1.288-1.072A2 2 0 0 0 11.276 6H4a2 2 0 0 0-2 2v16a2 2 0 0 0 2 2h24a2 2 0 0 0 2-2V10a2 2 0 0 0-2-2H15.124a2 2 0 0 1-1.28-.464Z"/><path fill="#ffccbc" fill-rule="evenodd" d="M22 10a10 10 0 1 0 10 10 10 10 0 0 0-10-10Zm-6 12.125a2 2 0 1 1 2-2 2 2 0 0 1-2 2Zm6 0a2 2 0 1 1 2-2 2 2 0 0 1-2 2Zm6 0a2 2 0 1 1 2-2 2 2 0 0 1-2 2Z"/></svg>

<svg xmlns="http://www.w3.org/2000/svg" viewBox="0 0 32 32">
  <path d="M13.84376,7.53645l-1.28749-1.0729A2,2,0,0,0,11.27591,6H4A2,2,0,0,0,2,8V24a2,2,0,0,0,2,2H28a2,2,0,0,0,2-2V10a2,2,0,0,0-2-2H15.12412A2,2,0,0,1,13.84376,7.53645Z" style="fill: #ff7043"/>
  <path d="M22,10A10,10,0,1,0,32,20,10,10,0,0,0,22,10ZM16,22.125a2,2,0,1,1,2-2A2,2,0,0,1,16,22.125Zm6,0a2,2,0,1,1,2-2A2,2,0,0,1,22,22.125Zm6,0a2,2,0,1,1,2-2A2,2,0,0,1,28,22.125Z" style="fill: #ffccbc;fill-rule: evenodd"/>
</svg>
